X: 1038
T:Blarney Stone (A19)
N: page A19
N: heptatonic
M: 6/8
L: 1/8
K: Ddor
G|:"Dm"vA2D uD2C|vD2E uF2G|vA2G uA2B|"Am" vc3 ucBA|"C"vG2 C C2B,|vC2 D E2F|
vG2 A uG2F| "Am"vE3 uEDC| "Dm"vD2uD vDDD|ud2 vd ud2c|"Am"vA2G uA2B|"C"vc3 ucBc|
"Dm" d2c A2G|"F"F2G A2G|"Dm"F2D "Am"E2C|"Dm"vD3 uD2G||"Dm" A2D D2 C| D2 E F2G|
A2G A2B|"Am"vc3 ucBA|"C"G2C G2B,|C2D E2F|G2A G2F|"Am"vE3 uEDC|
"Dm"vD2uD vDDD|ud2vdud2c|"Am"vA2G A2B|"C"vc3 ucBc|"Dm"d2c A2G|"F"F2G A2G|
"Dm"F2D "Am"E2C|"Dm"vD3 uD3|"Dm"vA3 uA3|vA3 uA3|"C"G2E C2E|vG3 "Am"uABc|
"Dm"d2 D D2E|vF3 uG3|"Am"vF3 uE3| "Dm" vD3 "Am"uABc|"Dm"d2G G2E|F3 G3|
"Am"vAAA uA2B|"C"vc3 ucBc|"Dm"d2c A2G|"F"F2G A2G|"Dm"F2D "Am"E2C|"Dm" vD3 uD2G:|
